X:1
T:The Masquerade Is Over
T:The Masquerade Is Over
C:Allie Wrubel
Z:All Rights Reserved
L:1/4
M:4/4
K:Eb
V:1 treble nm="Piano" snm="Pno."
%%MIDI program 0
V:1
 z2 z B, |"Ebmaj7" G3 G |"Dm7b5" G2-"G7" (3G B A |"Cm7" G3"F7" G |"Bbm7" F2"Eb7" z D/E/ | %5
w: Your|eyes don't|shine _ like they|used to|shine and the|
"Abmaj7" c3 c |"Gm7" B2-"C7" (3B c B |"F7" =A3 F |"Fm7" _A2"Bb7" z G/A/ |"Ebmaj7" B2- B/G/F/E/ | %10
w: thrill is|gone _ when your|lips meet|mine. I'm a-|fraid _ the mas- quer-|
"Bbm7" e3"Eb7" c |"Abmaj7" B2 A2 |"Abm7" z E"Db7" F E |"Ebmaj7" B4- |"C7" B G c3/2 G/ |"Fm7" B4- | %16
w: ade is|o- ver|and so is|love,|_ and so is|love.|
"Bb7" B2 z A |"Ebmaj7" G3 G |"Dm7b5" G2-"G7" (3G B A |"Cm7" G3"F7" G |"Bbm7" F2"Eb7" z D/E/ | %21
w: _ Your|words don't|mean _ what the|used to|mean. They were|
"Abmaj7" c3 c |"Gm7" B2-"C7" (3B c B |"F7" =A3 F |"Fm7" _A2"Bb7" z G/A/ |"Ebmaj7" B2- B/G/F/E/ | %26
w: once in-|spired _ now they're|just rou-|tine. I'm af-|raid _ the mas- quer-|
"Bbm7" e3"Eb7" c |"Abmaj7" B2 A2 |"Abm7" z E"Db7" F E |"Gm7""C7" B4- |"Fm7" B E"Bb7" G G | %31
w: ade is|ov- er|and so is|love,|_ and so is|
"Ebmaj7" E4- |"Gm7" E2"C7" z E |"Fm7" F/F/F/G/"Bb7" A G |"Ebmaj7" B"Cm7" B2 E | %35
w: love.|_ I|guess I'll have to play Pag-|liac- ci and|
"Fm7" F/F/F/G/"Bb7" A G |"Ebmaj7" B2 z G |"Am7" =A B"D7" c B/A/ |"Gm7" d d2 d | %39
w: get my- self a clown's dis-|guise, and|learn to laugh like Pag-|liac- ci with|
"Cm7" f2-"F7" (3f e c |"Fm7" F2"Bb7" z ^F |"Ebmaj7" G3 G |"Dm7b5" G2-"G7" (3G B A |"Cm7" G3"F7" G | %44
w: tears _ in my|eyes. You|look the|same, _ you're a|lot the|
"Bbm7" F2"Eb7" z D/E/ |"Abmaj7" c3 c |"Gm7" B2-"C7" (3B c B |"F7" =A3 F |"Fm7" _A2"Bb7" z G/A/ | %49
w: same, but my|heart says|"No, _ no, you're|not the|same." I'm a-|
"Ebmaj7" B2- B/G/F/E/ |"Bbm7" e3"Eb7" e |"Abmaj7" e2 F2 |"Abm7" z F"Db7" G A |"Gm7""C7" c4- | %54
w: fraid _ the mas- quer-|ade is|ov- er,|and so is|love,|
"Fm7" c A"Bb7" c e |"Ebmaj7" e4- | e2 z2 |] %57
w: _ and so is|love.|_|

